10/img/tick.svg

<svg width="26" height="19" viewBox="0 0 26 19" fill="none" xmlns="http://www.w3.org/2000/svg">
<path d="M25.7699 1.55162L24.5333 0.263482C24.1961 -0.0878274 23.5217 -0.0878274 23.1844 0.263482L9.80772 14.1988L2.83834 6.93836C2.50111 6.58705 1.82665 6.58705 1.48942 6.93836L0.252921 8.22651C-0.084307 8.57782 -0.084307 9.28043 0.252921 9.63174L9.02086 18.7658C9.24568 19 9.47049 19 9.69531 19C9.92013 19 10.1449 18.8829 10.3698 18.7658L25.545 2.95686C26.1071 2.60555 26.1071 2.02003 25.7699 1.55162Z" fill="#333333"/>
</svg>

<svg width="26" height="19" fill="none" xmlns="http://www.w3.org/2000/svg"><path d="M25.77 1.552 24.533.263c-.337-.35-1.011-.35-1.349 0L9.808 14.2l-6.97-7.26c-.337-.352-1.011-.352-1.349 0L.253 8.226c-.337.35-.337 1.053 0 1.405l8.768 9.134c.225.234.45.234.674.234.225 0 .45-.117.675-.234l15.175-15.81c.562-.35.562-.936.225-1.404Z" fill="#333"/></svg>
